X:1
T:Mon seul espoir
T:Mon seul espoir
T:Jacobus Clemens non Papa
C:Jacobus Clemens non Papa
%%score [ 1 [ 2 3 ] 4 ]
L:1/8
Q:1/4=92
M:2/2
K:F
V:1 treble nm="Superius" snm="S"
V:2 treble-8 nm="Tenor 1" snm="T 1"
V:3 treble-8 nm="Tenor 2" snm="T 2"
V:4 bass nm="Bassus" snm="B"
V:1
 F8 | A4 A4 | G8 | z8 | z2 C2 F2 G2 | A2 B2 c3 B | A2 G2 FD G2- | G2 F4 E2 | F4 z2 F2 | A4 G4 | %10
w: Mon|seul es-|poir,||le plai- sir|de ma vi- *|||e à|quoy di-|
 G2 z A A2 G2 | G2 z A A2 G2 | G2 z F F2 E2 | F2 z F F2 E2 | F2 A3 G F2- | F2 E2 F4 | z4 c4 | %17
w: sant lais- sez ce-|la, lais- sez ce-|la, lais- sez ce-|la, lais- sez ce-|la me- _ _|_ ten- tez,|res-|
 A2 A2 F2 F2 | B2 G2 ABcA | B2 A2 G2 F2 | G8 | z2 F2 F4 | F4 F4 | z2 F2 F2 F2 | G3 F G2 A2- | %25
w: pon- dez moy si|me re- fu- * * *|* sant mi- *|e,|in- no-|cem- ment|à mes de-|sirs _ _ con-|
 A2 G2 A4 | z2 F2 F2 G2 | A2 c2 BAGF | E4 z4 | z2 F2 F2 G2 | A2 c2 BA GF | E2 F2 G2 A2- | %32
w: * sen- tez,|a- mour loy-|al tous- jours, _ _ _|_|a- mour loy-|al tous- jours _ _ _|_ et me pre-|
 AG F4 E2 | F2 A4 GF | E3 F G4 | z2 F2 F2 G2 | A2 c2 BA GF | E2 F2 G2 A2- | AG F4 E2 | F8 |] %40
w: * * sen- *||* * tez,|a- mour loy-|al tous- jours _ _ _|_ et me pre-|* * sen- *|tez.|
V:2
 c8 | f4 f4 | e2 e2 e2 e2 | f2 d2 f2 g2- | gfed c2 de | f2 F2 G2 A2- | AB c2 d2 e2 | d2 B2 c4 | %8
w: Mon|seul es-|poir, le plai- sir|de ma vi- *|||||
 A4 z2 c2 | f4 d4 | e2 z c f2 d2 | e2 z c f2 d2 | e2 z d d2 c2 | AA d4 c2 | A3 B c2 d2 | %15
w: e, à|quoy di-|sant lais- sez ce-|la, lais- sez ce-|la, lais- sez ce-|la, lais- sez ce-|la me ten- *|
 c2 c2 A2 A2 | F4 z2 c2 | d2 c2 d2 f2 | fe/d/ e2 f2 f2 | f3 e d2 c2 | d4 e4 | z2 c2 d4 | c4 d4 | %23
w: tez, res- pon- dez|moy si|me re- fu- sant|mi- * * * e, si|me re- fu- sant|mi- e,|in- no-|cem- ment|
 z2 d2 d2 d2 | e3 d e2 f2 | d2 e2 f4 | z2 c2 d2 e2 | f2 f2 d4 | z2 c2 d2 d2 | e2 c2 d2 d2 | %30
w: à mes de-|sirs _ _ con-|sen- * tez,|a- mour loy-|al tous- jours,|a- mour loy-|al,- a- mour loy-|
 e2 f2 d2 e2 | c3 d e2 f2 | c2 d2 c4- | c2 BA d4 | z2 c2 d2 d2 | e2 c2 d2 d2 | e2 f2 d2 e2 | %37
w: al tous- jours et|me _ _ pre-|sen- * *|* * * tez,|a- mour loy-|al, a- mour loy-|al tous- jours et|
 c3 d e2 f2 | c2 d2 c4 | c8 |] %40
w: me _ _ pre-|sen- * *|tez,|
V:3
 A8 | d4 c4 | c2 G2 c4- | c2 B2 c2 d2 | e2 A2 z2 B2 | c2 d2 e2 f2 | F2 G2 ABcA | BAGF G4 | %8
w: Mon|seul es-|poir, le plai-|* sir de ma|vi- e, la|plai- sir de ma|vi- * * * * *||
 F2 A4 A2 | d2 c2 z2 B2 | c2 A2 d2 z B | c2 A2 d2 z B | c2 A2 B2 z G | F2 B2 G2 G2 | F3 G A2 B2 | %15
w: e, à quoy|di- sant, lais-|sez ce- la, lais-|sez ce- la, lais-|sez ce- la, lais-|sez ce- la me|ten- * * *|
 G4 F2 c2 | A2 A2 F4 | z2 f2 d2 d2 | B4 z2 c2 | d2 c2 B2 c2 |"^-natural""^-natural" cB/A/ B2 c4 | %21
w: * tez, res-|pon- dez moy,|res- pon- dez|moy, si|me re- fu- sant|mi- * * * e,|
 z2 A2 B4- | B2 A2 B2 F2 | B2 B2 A3 B | cd c4 BA | B2 B2 A2 A2 | B2 A2 F2 c2- | c2 A2 B4 | %28
w: in- no-|* cem- ment à|mes de- sirs _|_ _ con- * *|* sen- tez, a-|mour loy- al,- a-|* mour loy-|
 c2 A2 G2 B2 | c2 A2 B4 | c2 A2 B2 c2- | cB A2 G2 F2 | A2 B2 G4 | F2 c2 A2 B2 | c2 A2 G2 B2 | %35
w: al, a- mour loy-|al, a- mour|loy- al tous- jours|_ _ _ me pre-|sen- * *|tez, a- mour loy-|al, a- mour loy-|
 c3 A B2 B2 | c2 A2 B2 c2 | G2 A2 cB AG | A2 B2 G4 | F8 |] %40
w: al, a- mour loy-|al tous- jours et|me pre- sen- * * *||tez.|
V:4
 F,8 | D,4 F,4 | C,4 z2 C,2 | F,2 G,2 A,2 B,2 | C3 B, A,2 G,2 | F,2 E,D, C,2 F,2- | %6
w: Mon|seul es-|poir, le|plai- sir de ma|vi- * * *||
 F,2 E,2 D,2 C,2 | D,4 C,4 | z2 D,2 F,4 | F,4 G,4 | z C, F,2 D,2 G,2 | z C, F,2 D,2 G,2 | %12
w: |* e,|à quoy|di- sant,|lais- sez ce- la,|lais- sez ce- la,|
 z C, D,2 B,,2 C,C, | D,2 B,,2 C,4 | D,2 F,4 B,,2 | C,4 F,4 | z2 C2 A,2 A,2 | F,2 F,2 B,3 A, | %18
w: lais- sez ce- la, lais-|sez ce- la|me ten- *|* tez,|res- pon- dez|moy, si me re-|
 G,2 G,2 F,4 | B,,2 F,2 G,2 A,2 | G,4 C,4 | z2 F,2 B,,4 | F,4 B,,4- | B,,2 B,,2 D,2 D,2 | C,6 F,2 | %25
w: fu- sant mi-|e, re- fu- sant|mi- e,|in- no-|cem- ment|_ à mes de-|sirs con-|
 G,4 D,4 | z2 F,2 D,2 C,2 | F,2 F,2 G,2 G,2 | A,2 C2 B,A,G,F, | E,2 F,2 D,2 G,2- | %30
w: ten- tez,|a- mour loy-|al, a- mour loy-|al tous- jours _ _ _|_ et me pre-|
 G,2 F,2 G,2 C,2 | z2 F,2 C,2 F,2- | F,2 B,,2 C,4 | z2 F,2 F,2 G,2 | A,2 C2 B,A,G,F, | %35
w: * sen- * tez,|et me pre-|* sen- tez,|a- mour loy-|al tous- jours _ _ _|
 E,2 F,2 D,2 G,2- | G,2 F,2 G,2 C,2- | C,2 F,2 C,2 F,2- | F,2 B,,2 C,4 | F,8 |] %40
w: _ et me pre-|* sen- tez, et|_ me pre- sen-||tez.|

